src/svg/uf142-ellipsis-v.svg

<!-- Generated by IcoMoon.io -->
<svg version="1.1" xmlns="http://www.w3.org/2000/svg" width="7" height="32" viewBox="0 0 7 32">
<path d="M6.857 22.286v3.429c0 0.946-0.768 1.714-1.714 1.714h-3.429c-0.946 0-1.714-0.768-1.714-1.714v-3.429c0-0.946 0.768-1.714 1.714-1.714h3.429c0.946 0 1.714 0.768 1.714 1.714zM6.857 13.143v3.429c0 0.946-0.768 1.714-1.714 1.714h-3.429c-0.946 0-1.714-0.768-1.714-1.714v-3.429c0-0.946 0.768-1.714 1.714-1.714h3.429c0.946 0 1.714 0.768 1.714 1.714zM6.857 4v3.429c0 0.946-0.768 1.714-1.714 1.714h-3.429c-0.946 0-1.714-0.768-1.714-1.714v-3.429c0-0.946 0.768-1.714 1.714-1.714h3.429c0.946 0 1.714 0.768 1.714 1.714z"></path>
</svg>

<svg xmlns="http://www.w3.org/2000/svg" width="7" height="32"><path d="M6.857 22.286v3.429c0 .946-.768 1.714-1.714 1.714H1.714A1.715 1.715 0 0 1 0 25.715v-3.429c0-.946.768-1.714 1.714-1.714h3.429c.946 0 1.714.768 1.714 1.714zm0-9.143v3.429c0 .946-.768 1.714-1.714 1.714H1.714A1.715 1.715 0 0 1 0 16.572v-3.429c0-.946.768-1.714 1.714-1.714h3.429c.946 0 1.714.768 1.714 1.714zm0-9.143v3.429c0 .946-.768 1.714-1.714 1.714H1.714A1.715 1.715 0 0 1 0 7.429V4c0-.946.768-1.714 1.714-1.714h3.429c.946 0 1.714.768 1.714 1.714z"/></svg>
